icons/svg/seamark_big/landmark_tower.svg

<?xml version="1.0" encoding="UTF-8" standalone="no"?>
<svg
   xmlns:dc="http://purl.org/dc/elements/1.1/"
   xmlns:cc="http://creativecommons.org/ns#"
   xmlns:rdf="http://www.w3.org/1999/02/22-rdf-syntax-ns#"
   xmlns:svg="http://www.w3.org/2000/svg"
   xmlns="http://www.w3.org/2000/svg"
   xmlns:sodipodi="http://sodipodi.sourceforge.net/DTD/sodipodi-0.dtd"
   xmlns:inkscape="http://www.inkscape.org/namespaces/inkscape"
   width="1060"
   height="1060"
   id="svg2"
   version="1.1"
   inkscape:version="0.48.4 r9939"
   sodipodi:docname="landmark_tower.svg">
  <defs
     id="defs13">
    <inkscape:path-effect
       effect="gears"
       id="path-effect3774"
       is_visible="true"
       teeth="6"
       phi="-1.2" />
    <inkscape:path-effect
       effect="bend_path"
       id="path-effect3772"
       is_visible="false"
       bendpath="m 95.790098,316.51174 c 144.429032,-206.42506 223.313032,-11.7428 339.548092,0"
       prop_scale="1.19"
       scale_y_rel="false"
       vertical="false"
       bendpath-nodetypes="cc" />
  </defs>
  <sodipodi:namedview
     pagecolor="#ffffff"
     bordercolor="#666666"
     borderopacity="1"
     objecttolerance="10"
     gridtolerance="10"
     guidetolerance="10"
     inkscape:pageopacity="0"
     inkscape:pageshadow="2"
     inkscape:window-width="1920"
     inkscape:window-height="1004"
     id="namedview11"
     showgrid="false"
     inkscape:zoom="0.57543862"
     inkscape:cx="545.79277"
     inkscape:cy="596.24756"
     inkscape:window-x="1680"
     inkscape:window-y="0"
     inkscape:window-maximized="1"
     inkscape:current-layer="svg2"
     inkscape:snap-object-midpoints="true"
     inkscape:snap-center="true" />
  <metadata
     id="metadata2975">image/svg+xmlen<rdf:RDF>
  <cc:Work
     rdf:about="">
    <dc:format>image/svg+xml</dc:format>
    <dc:type
       rdf:resource="http://purl.org/dc/dcmitype/StillImage" />
    <dc:title></dc:title>
  </cc:Work>
</rdf:RDF>
</metadata>
  <path
     sodipodi:type="inkscape:offset"
     inkscape:radius="28.779821"
     inkscape:original="M 511.875 290.875 A 8.4010151 8.4010151 0 0 0 506.40625 292.875 L 460.5625 331.875 A 8.4010151 8.4010151 0 0 0 460.21875 332.1875 C 457.56845 334.70424 454.22605 337.34423 451.15625 341.25 C 448.08625 345.15577 445.53125 350.76367 445.53125 357.1875 L 445.53125 377.28125 L 445.53125 399.03125 C 445.53125 405.20455 447.31615 410.94788 450.71875 415.53125 C 453.31945 419.03414 457.14805 421.92376 461.65625 423.09375 L 451.65625 481.125 A 8.4010151 8.4010151 0 0 0 450.96875 485.125 L 438.125 559.65625 A 8.4028374 8.4028374 0 0 0 437.9375 560.71875 L 411.75 712.5 A 8.4010151 8.4010151 0 0 0 411.09375 716.46875 L 409.78125 723.96875 L 373.5 723.96875 L 373.5 747.03125 L 463.5625 747.03125 C 468.7506 767.73034 487.5585 783.15625 509.8125 783.15625 C 532.0665 783.15625 550.90185 767.73034 556.09375 747.03125 L 646.15625 747.03125 L 646.15625 723.96875 L 613.90625 723.96875 L 604 666.53125 A 8.4010151 8.4010151 0 0 0 604 666.46875 A 8.4010151 8.4010151 0 0 0 603.53125 663.8125 L 593.40625 605.03125 A 8.4010151 8.4010151 0 0 0 593 602.71875 L 582.875 544.0625 A 8.4010151 8.4010151 0 0 0 582.4375 541.40625 L 572.375 483.03125 A 8.4010151 8.4010151 0 0 0 571.84375 479.9375 L 562.03125 423.09375 C 566.53965 421.92361 570.36965 419.03371 572.96875 415.53125 C 576.36985 410.94837 578.15615 405.20451 578.15625 399.03125 L 578.15625 376.28125 L 578.15625 357.1875 C 578.15625 351.021 575.8952 345.45757 572.875 341.53125 C 569.8548 337.60493 566.49515 334.98335 563.34375 332.09375 A 8.4010151 8.4010151 0 0 0 563.125 331.875 L 517.28125 292.875 A 8.4010151 8.4010151 0 0 0 511.875 290.875 z M 511.84375 310.3125 L 552.21875 344.6875 C 555.60205 347.78264 558.2613 350.08968 559.5625 351.78125 C 560.9031 353.52406 561.34395 354.37504 561.34375 357.1875 L 561.34375 367.875 L 462.34375 367.875 L 462.34375 357.1875 C 462.34375 354.63237 462.8779 353.52973 464.375 351.625 C 465.8051 349.80559 468.4143 347.53838 471.4375 344.6875 L 471.625 344.53125 C 471.693 344.46685 471.71285 344.44005 471.78125 344.375 L 511.84375 310.3125 z M 462.34375 385.6875 L 561.34375 385.6875 L 561.34375 399.03125 C 561.34375 401.83695 560.43235 404.2017 559.46875 405.5 C 558.50535 406.7983 557.9586 406.875 557.6875 406.875 L 473 406.875 A 8.4010151 8.4010151 0 0 0 471.15625 406.75 A 8.4010151 8.4010151 0 0 0 470.15625 406.875 L 466 406.875 C 465.722 406.875 465.18245 406.7978 464.21875 405.5 C 463.25525 404.20219 462.34375 401.83691 462.34375 399.03125 L 462.34375 385.6875 z M 478.625 423.65625 L 535.34375 423.65625 L 471.21875 466.46875 L 478.625 423.65625 z M 547.1875 435.9375 L 554.625 479.03125 L 457.9375 543.53125 L 467.3125 489.28125 L 547.1875 435.9375 z M 557.75 497.15625 L 565.1875 540.21875 L 444.65625 620.6875 L 454 566.375 L 557.75 497.15625 z M 568.3125 558.34375 L 575.71875 601.4375 L 431.34375 697.8125 L 440.71875 643.5 L 568.3125 558.34375 z M 578.84375 619.53125 L 586.28125 662.625 L 536.34375 695.9375 C 528.74825 690.82379 519.6077 687.84375 509.8125 687.84375 C 489.4414 687.84375 471.9797 700.77789 465.1875 718.84375 L 430.0625 718.84375 L 578.84375 619.53125 z M 589.40625 680.75 L 595.96875 718.84375 L 554.46875 718.84375 C 553.00035 714.9408 551.04435 711.2828 548.65625 707.9375 L 589.40625 680.75 z M 509.8125 704.96875 C 526.767 704.96875 540.34375 718.54545 540.34375 735.5 C 540.34375 752.45455 526.767 766 509.8125 766 C 492.8579 766 479.3125 752.45455 479.3125 735.5 C 479.3125 718.54545 492.8579 704.96875 509.8125 704.96875 z "
     style="font-size:medium;font-style:normal;font-variant:normal;font-weight:normal;font-stretch:normal;text-indent:0;text-align:start;text-decoration:none;line-height:normal;letter-spacing:normal;word-spacing:normal;text-transform:none;direction:ltr;block-progression:tb;writing-mode:lr-tb;text-anchor:start;baseline-shift:baseline;opacity:0.372;color:#000000;fill:#e4e4e4;fill-opacity:1;fill-rule:nonzero;stroke:#a35151;stroke-width:0;stroke-linecap:round;stroke-linejoin:miter;stroke-miterlimit:4;stroke-opacity:1;stroke-dasharray:none;stroke-dashoffset:0;marker:none;visibility:visible;display:inline;overflow:visible;enable-background:accumulate;font-family:Sans;-inkscape-font-specification:Sans"
     id="path3938"
     d="m 511.96875,262.09375 c 2.40405,0.008 -15.16406,3.07571 -12.90625,2.25 2.25781,-0.82571 -13.11297,8.15077 -11.28125,6.59375 a 28.782699,28.782699 0 0 0 -0.0312,0.0312 l -45.84375,39 a 28.782699,28.782699 0 0 0 -0.0937,0.0937 c 0.26043,-0.22392 -1.31734,1.17981 -1.40625,1.25 -0.008,0.007 -0.14824,0.14733 -0.125,0.125 -1.27885,1.18888 -6.38423,5.20427 -11.75,12.03125 -6.54679,8.32907 -11.78125,19.6637 -11.78125,33.71875 l 0,20.09375 0,21.75 c 0,11.72075 3.48478,23.70148 10.875,33.65625 0.79431,1.06986 1.73975,2.04334 2.625,3.0625 l -6.96875,40.5 1.40625,0.25 c -0.2343,1.46015 -0.42081,2.546 -0.6875,4 l -1.40625,-0.25 -12.84375,74.53125 0.0625,0 c -0.10026,0.58062 -0.0556,0.47895 -0.15625,1.03125 l -0.0937,0 -24.0625,139.375 -12,0 a 28.782699,28.782699 0 0 0 -28.78125,28.78125 l 0,23.0625 A 28.782699,28.782699 0 0 0 373.5,775.8125 l 71.46875,0 c 13.5606,21.70631 37.62819,36.125 64.84375,36.125 27.21979,0 51.30542,-14.41103 64.875,-36.125 l 71.46875,0 a 28.782699,28.782699 0 0 0 28.78125,-28.78125 l 0,-23.0625 A 28.782699,28.782699 0 0 0 646.15625,695.1875 l -8,0 -5.78125,-33.5625 -0.5625,0.0937 c -0.27669,-1.45144 -0.25168,-1.18547 -0.5,-2.6875 l 0.59375,-0.0937 -10.125,-58.78125 -0.28125,0.0625 c -0.23796,-1.26645 -0.18939,-1.03655 -0.40625,-2.34375 l 0.28125,-0.0625 -10.125,-58.65625 -0.59375,0.0937 c -0.25784,-1.47562 -0.19358,-1.20911 -0.40625,-2.625 l 0.5625,-0.0937 -10.0625,-58.375 -0.78125,0.125 c -0.31992,-1.71787 -0.26126,-1.40425 -0.53125,-3.125 l 0.78125,-0.125 L 593.4375,435.75 c 0.88801,-1.02228 1.85952,-1.98886 2.65625,-3.0625 7.38532,-9.9515 10.84356,-21.93144 10.84375,-33.65625 l 0,-22.75 0,-19.09375 c 0,-13.20157 -4.45158,-24.38067 -11.25,-33.21875 -5.36528,-6.97496 -10.43111,-10.87576 -12.59375,-12.8125 a 28.782699,28.782699 0 0 0 -0.25,-0.21875 c -0.0133,-0.0121 -0.0495,-0.0506 -0.0625,-0.0625 a 28.782699,28.782699 0 0 0 -1,-0.90625 l -45.84375,-39 a 28.782699,28.782699 0 0 0 -0.0312,-0.0312 c 1.81247,1.54067 -13.38728,-7.3566 -11.15625,-6.53125 2.23103,0.82535 -15.12878,-2.32235 -12.75,-2.3125 a 28.782699,28.782699 0 0 0 -0.0312,0 z M 425.5,469.28125 c 0.0457,0.009 0.0572,0.14111 0.0625,0.34375 l -0.25,-0.0937 c 0.0834,-0.18964 0.14455,-0.25861 0.1875,-0.25 z m -2.9375,17.9375 c -0.14505,0.38619 -0.24917,0.46544 -0.28125,0.0312 l 0.28125,-0.0312 z m 87.25,246.53125 c 1.59044,0 1.75,0.15952 1.75,1.75 0,1.59048 -0.1242,1.71875 -1.75,1.71875 -1.62599,0 -1.71875,-0.0928 -1.71875,-1.71875 0,-1.62595 0.12812,-1.75 1.71875,-1.75 z" />
  <path
     sodipodi:type="arc"
     style="color:#000000;fill:none;stroke:#000000;stroke-width:30.33652288;stroke-linecap:butt;stroke-linejoin:miter;stroke-miterlimit:4;stroke-opacity:1;stroke-dasharray:none;stroke-dashoffset:0;marker:none;visibility:visible;display:inline;overflow:visible;enable-background:accumulate"
     id="path2985"
     sodipodi:cx="510.26483"
     sodipodi:cy="737.74365"
     sodipodi:rx="69.120766"
     sodipodi:ry="69.120766"
     d="m 579.3856,737.74365 a 69.120766,69.120766 0 1 1 -138.24153,0 69.120766,69.120766 0 1 1 138.24153,0 z"
     transform="matrix(0.56558888,0,0,0.56558888,221.05031,318.17685)" />
  <path
     style="font-size:medium;font-style:normal;font-variant:normal;font-weight:normal;font-stretch:normal;text-indent:0;text-align:start;text-decoration:none;line-height:normal;letter-spacing:normal;word-spacing:normal;text-transform:none;direction:ltr;block-progression:tb;writing-mode:lr-tb;text-anchor:start;baseline-shift:baseline;color:#000000;fill:#000000;fill-opacity:1;stroke:none;stroke-width:30.00000191;marker:none;visibility:visible;display:inline;overflow:visible;enable-background:accumulate;font-family:Sans;-inkscape-font-specification:Sans"
     d="m 373.3125,723.91311 0,23.04878 95.52668,0 0,-23.04878 z m 177.12957,0 0,23.04878 95.52668,0 0,-23.04878 z"
     id="path3754"
     inkscape:connector-curvature="0"
     sodipodi:nodetypes="cccccccccc" />
  <rect
     style="fill:none"
     y="209.23727"
     x="249.02544"
     width="487.45749"
     height="487.45749"
     id="rect3" />
  <path
     id="path7"
     d="m 569.5589,377.21436 c 0,-10.97754 0,-17.217 0,-20.10275 0,-8.97896 -5.37772,-12.76163 -12.0655,-18.89385 l -45.83734,-38.9966 -45.83735,38.9966 c -5.86266,5.56676 -12.0655,9.91489 -12.0655,18.89385 0,2.88575 0,9.12521 0,20.10275 H 569.5589 z"
     stroke-miterlimit="10"
     inkscape:connector-curvature="0"
     style="fill:none;stroke:#000000;stroke-width:16.80035019;stroke-linecap:round;stroke-linejoin:round;stroke-miterlimit:10" />
  <path
     id="path9"
     d="m 453.75321,376.21096 c 0,10.97754 0,19.85902 0,22.74477 0,8.97896 5.39944,16.25183 12.0655,16.25183 h 91.68193 c 6.65882,0 12.05826,-7.27287 12.05826,-16.25183 0,-2.88575 0,-11.76723 0,-22.74477 H 453.75321 z"
     stroke-miterlimit="10"
     inkscape:connector-curvature="0"
     style="fill:none;stroke:#000000;stroke-width:16.80035019;stroke-linecap:round;stroke-linejoin:round;stroke-miterlimit:10" />
  <path
     style="font-size:medium;font-style:normal;font-variant:normal;font-weight:normal;font-stretch:normal;text-indent:0;text-align:start;text-decoration:none;line-height:normal;letter-spacing:normal;word-spacing:normal;text-transform:none;direction:ltr;block-progression:tb;writing-mode:lr-tb;text-anchor:start;baseline-shift:baseline;color:#000000;fill:#000000;fill-opacity:1;stroke:none;stroke-width:16.80035019;marker:none;visibility:visible;display:inline;overflow:visible;enable-background:accumulate;font-family:Sans;-inkscape-font-specification:Sans"
     d="M 470.96875 406.6875 A 8.4010151 8.4010151 0 0 0 463.0625 413.78125 L 409.28125 725.75 A 8.4010151 8.4010151 0 0 0 417.5625 735.59375 L 474.46875 735.59375 C 474.46852 735.54146 474.46875 735.48984 474.46875 735.4375 C 474.46875 729.41337 475.98846 723.73869 478.65625 718.78125 L 427.53125 718.78125 L 479.625 416.625 A 8.4010151 8.4010151 0 0 0 470.96875 406.6875 z M 551.96875 406.8125 A 8.40243 8.40243 0 0 0 543.6875 416.625 L 595.78125 718.78125 L 540.65625 718.78125 C 543.32404 723.73869 544.84375 729.41337 544.84375 735.4375 C 544.84375 735.4898 544.84398 735.54151 544.84375 735.59375 L 605.75 735.59375 A 8.4010151 8.4010151 0 0 0 614.03125 725.75 L 560.25 413.78125 A 8.40243 8.40243 0 0 0 551.96875 406.8125 z "
     id="path19" />
  <path
     inkscape:connector-curvature="0"
     id="line27"
     d="M 419.56157,715.5691 584.75116,605.32572"
     style="fill:none;stroke:#000000;stroke-width:16.80035019;stroke-linecap:round;stroke-linejoin:round;stroke-miterlimit:10" />
  <path
     style="font-size:medium;font-style:normal;font-variant:normal;font-weight:normal;font-stretch:normal;text-indent:0;text-align:start;text-decoration:none;line-height:normal;letter-spacing:normal;word-spacing:normal;text-transform:none;direction:ltr;block-progression:tb;writing-mode:lr-tb;text-anchor:start;baseline-shift:baseline;color:#000000;fill:#000000;fill-opacity:1;stroke:none;stroke-width:16.80035019;marker:none;visibility:visible;display:inline;overflow:visible;enable-background:accumulate;font-family:Sans;-inkscape-font-specification:Sans"
     d="M 595.125 658.0625 A 8.4010151 8.4010151 0 0 0 590.625 659.53125 L 524.625 703.59375 C 530.01968 706.13541 534.65362 710.00216 538.125 714.78125 L 599.9375 673.53125 A 8.4010151 8.4010151 0 0 0 595.125 658.0625 z "
     id="line29" />
  <path
     inkscape:connector-curvature="0"
     id="line31"
     d="M 432.85751,638.45333 574.20559,544.12057"
     style="fill:none;stroke:#000000;stroke-width:16.80035019;stroke-linecap:round;stroke-linejoin:round;stroke-miterlimit:10" />
  <path
     inkscape:connector-curvature="0"
     id="line33"
     d="M 446.14622,561.33757 563.6528,482.91541"
     style="fill:none;stroke:#000000;stroke-width:16.80035019;stroke-linecap:round;stroke-linejoin:round;stroke-miterlimit:10" />
  <path
     inkscape:connector-curvature="0"
     id="line35"
     d="m 459.44215,484.22179 93.65787,-62.51155"
     style="fill:none;stroke:#000000;stroke-width:16.80035019;stroke-linecap:round;stroke-linejoin:round;stroke-miterlimit:10" />
</svg>

<svg width="1060" height="1060" viewBox="0 0 1060 1060" fill="none" xmlns="http://www.w3.org/2000/svg">
<path opacity="0.372" d="M511.969 262.094C514.373 262.102 496.805 265.169 499.063 264.344C501.32 263.518 485.95 272.495 487.781 270.938C487.771 270.948 487.761 270.958 487.75 270.969L441.906 309.969C441.875 310 441.844 310.031 441.813 310.062C442.073 309.838 440.495 311.242 440.406 311.312C440.398 311.319 440.258 311.46 440.281 311.437C439.003 312.626 433.897 316.642 428.531 323.469C421.985 331.798 416.75 343.132 416.75 357.187V377.281V399.031C416.75 410.752 420.235 422.733 427.625 432.687C428.419 433.757 429.365 434.731 430.25 435.75L423.281 476.25L424.688 476.5C424.453 477.96 424.267 479.046 424 480.5L422.594 480.25L409.75 554.781H409.813C409.712 555.362 409.757 555.26 409.656 555.812H409.563L385.5 695.187H373.5C365.867 695.188 358.547 698.22 353.149 703.618C347.752 709.015 344.719 716.335 344.719 723.969V747.031C344.719 754.664 347.752 761.985 353.149 767.382C358.547 772.78 365.867 775.812 373.5 775.812H444.969C458.529 797.519 482.597 811.938 509.813 811.938C537.032 811.938 561.118 797.526 574.688 775.812H646.156C653.789 775.812 661.11 772.78 666.507 767.382C671.905 761.985 674.937 754.664 674.938 747.031V723.969C674.937 716.336 671.905 709.015 666.507 703.618C661.11 698.22 653.789 695.188 646.156 695.188H638.156L632.375 661.625L631.813 661.719C631.536 660.267 631.561 660.533 631.313 659.031L631.906 658.938L621.781 600.156L621.5 600.219C621.262 598.952 621.311 599.182 621.094 597.875L621.375 597.812L611.25 539.156L610.656 539.25C610.399 537.774 610.463 538.041 610.25 536.625L610.813 536.531L600.75 478.156L599.969 478.281C599.649 476.563 599.708 476.877 599.438 475.156L600.219 475.031L593.438 435.75C594.326 434.728 595.297 433.761 596.094 432.688C603.479 422.736 606.937 410.756 606.938 399.031V376.281V357.188C606.938 343.986 602.486 332.807 595.688 323.969C590.322 316.994 585.256 313.093 583.094 311.156C583.011 311.083 582.928 311.01 582.844 310.938C582.831 310.925 582.794 310.887 582.781 310.875C582.455 310.565 582.122 310.263 581.781 309.969L535.938 270.969C535.927 270.958 535.917 270.948 535.906 270.938C537.719 272.478 522.519 263.581 524.75 264.406C526.981 265.232 509.621 262.084 512 262.094C511.99 262.094 511.979 262.094 511.969 262.094L511.969 262.094ZM425.5 469.281C425.546 469.29 425.557 469.422 425.563 469.625L425.313 469.531C425.396 469.342 425.457 469.273 425.5 469.281V469.281ZM422.563 487.219C422.418 487.605 422.313 487.684 422.281 487.25L422.563 487.219ZM509.813 733.75C511.403 733.75 511.563 733.91 511.563 735.5C511.563 737.09 511.438 737.219 509.813 737.219C508.187 737.219 508.094 737.126 508.094 735.5C508.094 733.874 508.222 733.75 509.813 733.75Z" fill="#E4E4E4"/>
<path d="M548.744 735.437C548.745 740.571 547.735 745.655 545.77 750.399C543.806 755.143 540.927 759.453 537.296 763.084C533.666 766.715 529.356 769.596 524.612 771.561C519.869 773.526 514.785 774.537 509.65 774.537C504.516 774.537 499.432 773.526 494.688 771.561C489.945 769.596 485.635 766.715 482.004 763.084C478.374 759.453 475.495 755.143 473.53 750.399C471.566 745.655 470.556 740.571 470.556 735.437C470.556 730.302 471.566 725.218 473.53 720.474C475.495 715.73 478.374 711.42 482.004 707.789C485.635 704.158 489.945 701.277 494.688 699.312C499.432 697.347 504.516 696.336 509.65 696.336C514.785 696.336 519.869 697.347 524.612 699.312C529.356 701.277 533.666 704.158 537.296 707.789C540.927 711.42 543.806 715.73 545.77 720.474C547.735 725.218 548.745 730.302 548.744 735.437Z" stroke="black" stroke-width="17.158"/>
<path d="M373.312 723.913V746.962H468.839V723.913H373.312ZM550.442 723.913V746.962H645.969V723.913H550.442Z" fill="black"/>
<path d="M569.559 377.214C569.559 366.237 569.559 359.997 569.559 357.112C569.559 348.133 564.181 344.35 557.493 338.218L511.656 299.221L465.819 338.218C459.956 343.785 453.753 348.133 453.753 357.112C453.753 359.997 453.753 366.237 453.753 377.214H569.559Z" stroke="black" stroke-width="16.8004" stroke-miterlimit="10" stroke-linecap="round" stroke-linejoin="round"/>
<path d="M453.753 376.211C453.753 387.188 453.753 396.07 453.753 398.956C453.753 407.935 459.153 415.208 465.819 415.208H557.501C564.159 415.208 569.559 407.935 569.559 398.956C569.559 396.07 569.559 387.188 569.559 376.211H453.753Z" stroke="black" stroke-width="16.8004" stroke-miterlimit="10" stroke-linecap="round" stroke-linejoin="round"/>
<path d="M470.969 406.687C469.036 406.778 467.193 407.534 465.752 408.826C464.312 410.119 463.362 411.869 463.063 413.781L409.281 725.75C409.071 726.958 409.127 728.197 409.446 729.38C409.765 730.564 410.34 731.663 411.129 732.601C411.918 733.539 412.903 734.293 414.014 734.81C415.126 735.327 416.337 735.594 417.563 735.594H474.469C474.469 735.541 474.469 735.49 474.469 735.437C474.469 729.413 475.989 723.739 478.656 718.781H427.531L479.625 416.625C479.858 415.379 479.807 414.096 479.474 412.873C479.141 411.649 478.535 410.517 477.702 409.561C476.869 408.605 475.831 407.85 474.665 407.352C473.499 406.855 472.235 406.627 470.969 406.687V406.687ZM551.969 406.812C550.746 406.813 549.538 407.08 548.43 407.595C547.321 408.11 546.338 408.861 545.55 409.796C544.761 410.73 544.186 411.825 543.864 413.005C543.543 414.184 543.482 415.42 543.688 416.625L595.781 718.781H540.656C543.324 723.739 544.844 729.413 544.844 735.437C544.844 735.49 544.844 735.541 544.844 735.594H605.75C606.976 735.594 608.187 735.327 609.298 734.81C610.41 734.293 611.395 733.539 612.184 732.601C612.973 731.663 613.547 730.564 613.866 729.38C614.185 728.197 614.242 726.958 614.031 725.75L560.25 413.781C559.912 411.83 558.896 410.061 557.381 408.786C555.866 407.511 553.949 406.812 551.969 406.812V406.812Z" fill="black"/>
<path d="M419.562 715.569L584.751 605.326" stroke="black" stroke-width="16.8004" stroke-miterlimit="10" stroke-linecap="round" stroke-linejoin="round"/>
<path d="M595.125 658.062C593.515 658.111 591.953 658.62 590.625 659.531L524.625 703.594C530.02 706.135 534.654 710.002 538.125 714.781L599.938 673.531C601.486 672.538 602.666 671.064 603.296 669.336C603.926 667.607 603.972 665.72 603.425 663.963C602.879 662.207 601.77 660.678 600.271 659.612C598.772 658.546 596.964 658.002 595.125 658.062V658.062Z" fill="black"/>
<path d="M432.857 638.453L574.205 544.121" stroke="black" stroke-width="16.8004" stroke-miterlimit="10" stroke-linecap="round" stroke-linejoin="round"/>
<path d="M446.146 561.338L563.653 482.916" stroke="black" stroke-width="16.8004" stroke-miterlimit="10" stroke-linecap="round" stroke-linejoin="round"/>
<path d="M459.442 484.222L553.1 421.71" stroke="black" stroke-width="16.8004" stroke-miterlimit="10" stroke-linecap="round" stroke-linejoin="round"/>
</svg>
